X:1
T:Beautiful Songs of Praise
T:S. S. Myers, 1882
T:Beautiful Songs of Praise
T:Public Domain
T:Public Domain
C:S. S. Myers, 1882
Z:Public Domain
%%score ( 1 2 ) 3
L:1/8
M:6/8
K:A
V:1 treble 
V:2 treble 
V:3 bass 
V:1
 [Ec][Ec][Ec] (cB)[EA] | [DF]3- [DF]2 z | [^DF][DF][DF] [EG]2 [DF] | E3- [DE]2 z | %4
w: 1.~Beau- ti- ful Sab- * bath|Ring- *|ing so glad and free,|Tell- ing|
w: 2.~Beau- ti- ful Sab- * bath|Hap- *|py our voic- es ring,|Tell- ing|
w: 3.~Beau- ti- ful Sab- * bath|Join *|in the glad re- frain,|Tell- ing|
 [CE][CE][CE] [CA]2 [DB] | [Ec]2 [=Ge] [Fd]3 | [Ec][DB][CA] [Ec]2 [DB] | [CA]3- [CA]2 z || %8
w: Sav- ior’s won- drous love,|E- ven for|you and me. Beau- ti-|ful *|
w: His sal- va- tion free,|Joy- ful- ly|ev- er sing. * *||
w: Je- sus died for all,|Blest be His|ho- ly name. * *||
"^Refrain" [Ec]4 [EB][=Ge] | [Fd]3- [Fd]2 z | [^DF]4 [EG][DF] | (E3- [DE]2) z | %12
w: songs, beau- ti-|ful *|songs, Tell- ing|the *|
w: ||||
w: ||||
 [CE][CE][CE] [CA]2 [CB] | [Ec]2 [=Ge] [Fd]3 | [Ec][DB][CA] [Ec]2 [DB] | [CA]4 |] %16
w: ior’s won- drous love, E-|ven for you|and me. * * *||
w: ||||
w: ||||
V:2
 x3 E2 x | x6 | x6 | E3 x3 | x6 | x6 | x6 | x6 || x6 | x6 | x6 | E3 x3 | x6 | x6 | x6 | x4 |] %16
w: songs,|||the||||||||Sav-|||||
w: songs,|||of|||||||||||||
w: songs,|||how|||||||||||||
V:3
 [A,,A,][A,,A,][A,,A,] [A,,A,]2 [C,A,] | [D,A,]3- [D,A,]2 z | %2
w: ~ ~ ~ ~ ~|~ *|
 [B,,B,][B,,B,][B,,B,] [B,,B,]2 [B,,B,] | [E,G,]3- [E,G,]2 z | %4
w: ~ ~ ~ ~ ~|~ *|
 [A,,A,][A,,A,][A,,A,] [A,,A,]2 [A,,A,] | [A,,A,]2 [C,A,] [D,A,]3 | %6
w: ~ ~ ~ ~ ~|~ ~ ~|
 [E,A,][E,A,][E,A,] [E,A,]2 [E,G,] | [A,,A,]3- [A,,A,]2 z || z3 [A,,A,][B,,G,][C,A,] | %9
w: ~ ~ ~ ~ ~|~ *|Beau- ti- ful,|
 [D,A,][D,A,][D,A,] [D,A,]2 z | z3 [B,,B,][B,,B,][B,,A,] | [E,G,][E,G,][E,G,] [E,G,]2 z | %12
w: beau- ti- ful songs,|Beau- ti- ful,|beau- ti- ful songs,|
 [A,,A,][A,,A,][A,,A,] [A,,A,]2 [A,,A,] | [A,,A,]2 [C,A,] [D,A,]3 | %14
w: ||
 [E,A,][E,A,][E,A,] [E,A,]2 [E,G,] | [A,,A,]4 |] %16
w: ||

